X:1
T:Lord Ramsay's Favorite
T:Lord Ramsay's Favorite
T:Niel Gow Jr.
C:Niel Gow Jr.
L:1/8
M:2/2
K:Bb
V:1 treble 
V:1
 f | =e(f_e)c B2 dB | (Ac).f.=e .f(FGA) | BdFB GBAc | Bdec BAGF | (=ef)_ec B2 dB | Acf.=e .f(FGA) | %7
 BdDF EGFB | GecA B3 || f |{a} b2 df Bddf | gecB Agfe | dcBA GEec | Acfe edde | =ef_ec B2 dB | %15
 Acf=e fFGA | BdDF EGFB | BecA B3 || %18

